!!!OTL-incipit: IM WALD UND AUF DER HAIDE
!!!ARE: Europa, Mitteleuropa, Deutschland, Anclam
!!!SCT: Z0204
!!!TXL: @@DE
!!!YEM: Copyright 1995, estate of Helmut Schaffrath.
**kern	**text
*ICvox	*
*M6/8	*
*k[]	*
*C:	*
!LO:TX:a:t=Mündlich. Jn Anclam gehört.	!
{8g	Jm
=1	=1
4g	Wald
8g	und
4g	auf
8g	der
=2	=2
(4g	Hai-
8ee	.
8cc)	.
8b}	-de,
{8cc	da
=3	=3
4a	ſuch
8a	ich
4a	mei-
8a	-ne
=4	=4
4a	Freu-
8ff	.
8dd	-de
8cc}	.
{8dd	als
=5	=5
4b	fro-
8b	-her
8b	Jä-
8cc	.
8dd	-gers-
=6	=6
4.ee}	-mann,
{(8ff	als
8ee	.
8dd)	.
=7	=7
4cc	fro-
8cc	-her
8b/	Jä-
8a	.
8b/	-gers-
=8	=8
2cc}	-mann.
{8ccL	Falle-
8ddJ	.
=9	=9
4ee	-ri,
16ee	falle-
16ee	.
4ee	-ra,
16ee	falle-
16ee	.
=10	=10
4.gg}	-rum,
{8gg	.
8ff	.
8ee	als
=11	=11
4dd	fro-
8dd	-her
8dd	Jä-
8cc	.
8dd	-gers-
=12	=12
2ee}	-mann,
{8ccL	falle-
8ddJ	.
=13	=13
4ee	-ri,
8ee	falle-
8ee	-ra,
8ee	falle-
=14	=14
4.gg}	-rum,
{8gg	.
8ff	.
8dd	als
=15	=15
4dd	fro-
8dd	-her
8dd	Jä-
8cc	.
8dd	-gers-
=16	=16
2cc	-mann.
8r}	.
==	==
!!!AGN: Jaeger - Lied
!!!ONB: ESAC (Essen Associative Code) Database: ZUCCAL
!!!AMT: compound duple
!!!AIN: vox
!!!EED: Helmut Schaffrath
!!!EEV: 1.0
!!!GTL: III. Soldaten-, Jaeger-, Schiffer-, Fuhrmanns- und Handwerks-Lieder.
!!!URL-scan: https://www.digitale-sammlungen.de/de/view/bsb11160571?page=378
!!!ENC: Anna Maria Matuszewska
!!!EEV: 2025/01/28
*-	*-
